X:745
T:Thoams Atkinson Quick Step
A:Wyresdale, Lancashire
B:E and J Winder, 1835-41
L:1/8
M:2/4
O:England
Z:Richard Robinson 
%%TUNEURL: http://www.leeds.ac.uk/music/Info/RRTuneBk/gettune/00001067.html
%%ID:00001067
K:C
c/d/ | \
eege | ddfd | ccec | g/^f/g/f/ g/a/g/f/ | \
eege | ddfd | c/e/d/f/ e/g/f/b/ | c'cc ::
B/c/ |\
dd/e/ g/f/e/d/ | ec ce/f/ | gg/e/ aa/f/ | e2{fe} d2 | \
G/c/e/c/ B/d/f/d/ | ggec | G/c/e/c/ G/d/f/a/ | g/f/e/d/ c ::
e/f/ | gg g/a/b/c'/ | ac'/a/ gf/e/ | ff fa/f/ | e2 de/f/ | \
gg g/a/b/c'/ | ac' ge | f/e/f/a/ g/f/e/d/ |  ccc ::
